X:156 
T:One of Tommy's* (hornpipe)
S:Tommy Peoples
F:file ID: cre.5/156one_tom
B:CRE5.220 (gan ainm)
M:4/4
%%Q:150
R:hornpipe
K:G
D2|BG~G2 EDB,D|[GG,]DGB c2AB|cAFA DFAc|ed^cd f/e/d =c/B/A|
BGFG EDB,D|[GG,]DGB c2AB|cAFA DFAc|edcA G2:|
|:(3def|g2gA f2fA|e2ce d2c2|BAGB ADFA|G3A Bc^cd|
g2 A/G/A f2 A/B/A|e2ce d3c|BAGB ADFA|DGBA G2:|

%%%

